X: 107
T:At The Parade
M:C
L:1/8
C:Weismiller
S:ir-trad 3\97
R:Hornpipe
K:G
Bc|dBB2 cAFA|GABG AGEF|DGBG EGcG|F2FG A2Bc|
dBB2 cAFA|BAGB AGFE|DGBE GcBc|dBAB G2:|*
|:AB|ceg2 gfed|Bdg2 gfed|cdef g2ga|b2ba gfed|
edcB cega|gdBA GABd|cegB dgfe|dBAB G2:|**
